X:1
T:Title
%%score [ 1 2 3 4 ]
L:1/8
Q:1/4=112
M:4/4
K:Bb
V:1 treble nm="Soprano" snm="S"
V:2 treble nm="Alto" snm="A"
V:3 treble-8 nm="Tenor" snm="T"
V:4 bass nm="Bass" snm="B"
V:1
 G3"^Now I see thy looks were feigned" G ^F2 D2 | (GA) (Bc) A2 D2 | %2
w: ~~Now I see thy|looks * were * feign- ed,|
w: Of thine eye I|made * my * mir- ror,|
w: ~~~~Feign'd ac- cept- ance|when * I * ask- ed,|
w: ~Now I see, O|seem\- * ly * cru- el,|
w: ~~Prime youth lasts not,|age * will * fol- low,|
 d3 d c3"^Thomas Ford\n(c. 1580-1648)" B |[M:4/4] A3 A G2 G2 | G3 G ^F2 D2 | (GA) (Bc) A2 D2 | %6
w: Quick- ly lost and|quick- ly gain- ed.|Soft thy skin like|wool * of * we- thers,|
w: from thy beau- ty|came my er- ror;|All thy words I|coun\- * ted * wit- ty,|
w: Love- ly words with|cun- ning mask- ed,|Ho- ly vows but|heart * un\- * ho- ly|
w: O- thers warm them|at my fu- el.|Wit shall guide me|in * this * dur- ance|
w: And make white those|tress- es yel- low;|Wrink- led face for|looks * de\- * light- ful|
 d3 d c3 B | A3 A G2 G2 | G3 A B2 B2 | c2 B2 A2 A2 | d3 d ^c2 d2 | =e2 (ed) d2 d2 |: d3 =e f2 d2 | %13
w: Heart un- con- stant,|light as feath- ers.|Tongue un- trus- ty,|sub- tle- sight- ed,|Wan- ton will with|change de\- * light- ed.||
w: All thy sighs I|deem- ed pi- ty;|Thy false tears that|me ag- griev- ed|First of all my|trust de\- * ceiv- ed.||
w: Wretch- ed man! my|trust was fol- ly.|Li- ly- white and|pret- ty wink- ing,|Sol- emn vows, but|sor- ry * think- ing.|Si- ren plea- sant,|
w: Since in love is|no as- sur- ance.|Change thy pas- ture,|take thy plea- sure,|Beau- ty is a|fad- ing * trea- sure.||
w: Shall ac- quaint the|dame de- spite- ful|And when time shall|date thy glo- ry|Then too late thou|shall be * sor- ry.||
 c2 B2 A2 A2 |[Q:1/4=112] B3[Q:1/4=112] G[Q:1/4=112] c3[Q:1/4=112] A | %15
w: ||
w: ||
w: foe to rea- son,|Cu- pid plague thee|
w: ||
w: ||
[Q:1/4=112] d3[Q:1/4=112] ^F[Q:1/4=112] G2[Q:1/4=112] !fermata!G2 :| %16
w: |
w: |
w: for thy trea- son.|
w: |
w: |
V:2
 B3 B A2 A2 | G2 G2 ^F2 F2 | D3 D =E3 G |[M:4/4] D3 C =B,2 B,2 | B3 B A2 A2 | G2 G2 ^F2 F2 | %6
 D3 D =E3 G | D3 C =B,2 B,2 | D2 F2 G2 G2 | G2 G2 ^F2 F2 | A3 A A2 F2 | A2 G2 ^F2 F2 |: %12
 B3 B B2 B2 | A2 G2 ^F2 F2 | F2 G2 G2 A2 | A3 A G2 !fermata!G2 :| %16
V:3
 d3 d d2 d2 | d2 d2 d2 d2 | B3 B A2 G2 |[M:4/4][K:treble-8] G2 ^F2 G2 G2 | d3 d d2 d2 | %5
w: Now I see thy|looks were feign- ed,|Quick- ly lost and|quick- ly gain- ed.|Soft thy skin like|
w: Of thine eye I|made my mir- ror,|from thy beau- ty|came my er- ror;|All thy words I|
w: Feign'd ac- cept- ance|when I ask- ed,|Love- ly words with|cun- ning mask- ed,|Ho- ly vows but|
w: Now I see, O|seem- ly cru- el,|O- thers warm them|at my fu- el.|Wit shall guide me|
w: Prime youth lasts not,|age will fol- low,|And make white those|tress- es yel- low;|Wrink- led face for|
 d2 d2 d2 d2 | B3 B A2 G2 | G2 ^F2 G2 G2 | d2 d2 d2 e2 | e2 d2 d2 d2 | f3 f =e2 d2 | %11
w: wool of we- thers,|Heart un- con- stant,|light as feath- ers.|Tongue un- trus- ty,|sub- tle- sight- ed,|Wan- ton will with|
w: coun- ted wit- ty,|All thy sighs I|deem- ed pi- ty;|Thy false tears that|me ag- griev- ed|First of all my|
w: heart un- ho- ly|Wretch- ed man! my|trust was fol- ly.|Li- ly- white and|pret- ty wink- ing,|Sol- emn vows, but|
w: in this dur- ance|Since in love is|no as- sur- ance.|Change thy pas- ture,|take thy plea- sure,|Beau- ty is a|
w: looks de- light- ful|Shall ac- quaint the|dame de- spite- ful|And when time shall|date thy glo- ry|Then too late thou|
 d2 ^c2 d2 d2 |: d2 d2 d2 d2 | e2 d2 d2 d2 | d2 B2 e2 c2 | f2 d2 =B2 !fermata!B2 :| %16
w: change de- light- ed.|||||
w: trust de- ceiv- ed.|||||
w: sor- ry think- ing.|Si- ren plea- sant,|foe to rea- son,|Cu- pid plague thee|for thy trea- son.|
w: fad- ing trea- sure.|||||
w: shall be sor- ry.|||||
V:4
 G,3 G, D,2 D,2 | G,,2 G,,2 D,2 D,2 | B,,3 B,, C,3 C, |[M:4/4] D,2 D,2 G,,2 G,,2 | G,3 G, D,2 D,2 | %5
 G,,2 G,,2 D,2 D,2 | B,,3 B,, C,3 C, | D,2 D,2 G,,2 G,,2 | G,2 D,2 G,2 G,2 | C,2 G,,2 D,2 D,2 | %10
 (D,=E,) (F,G,) A,2 B,2 | A,2 A,,2 D,2 D,2 |: B,,3 B,, B,,2 B,,2 | F,2 G,2 D,2 D,2 | %14
 B,,2 E,2 C,2 F,2 | D,2 D,2 G,,2 !fermata!G,,2 :| %16

